lib/flags/l/BLR.svg

<svg xmlns="http://www.w3.org/2000/svg" fill="none" viewBox="0 0 32 24"><mask id="BLR_svg__a" width="32" height="24" x="0" y="0" mask-type="alpha" maskUnits="userSpaceOnUse"><path fill="#fff" d="M0 0H32V24H0z"/></mask><g mask="url(#BLR_svg__a)"><path fill="#73BE4A" fill-rule="evenodd" d="M0 0H32V24H0V0Z" clip-rule="evenodd"/><path fill="#AF0100" fill-rule="evenodd" d="M0 0V16H32V0H0Z" clip-rule="evenodd"/><path fill="#F7FCFF" d="M0 0H6V24H0z"/><path fill="#B20000" fill-rule="evenodd" d="M.444214 2.23612 1.89684.0568848 3.31207 2.23605 1.8968 4.31542.444214 2.23612zM1.89149 3.42541 2.70566 2.2292 1.89145.975484 1.05579 2.22914 1.89149 3.42541zM2 2.06457H1.75V2.5807H2V2.06457zM1.13706 4.18591.444214 5.1766 1.13704 6.12187 1.81207 5.17658 1.13706 4.18591zM1.46111 5.19339 1.14893 5.61718.832999 5.16811 1.14809 4.70305 1.46111 5.19339zM2.63706 4.18591 1.94421 5.1766 2.63704 6.12187 3.31207 5.17658 2.63706 4.18591zM2.96111 5.19339 2.64893 5.61718 2.333 5.16811 2.64809 4.70305 2.96111 5.19339z" clip-rule="evenodd"/><path fill="#B20000" fill-rule="evenodd" d="M3.63706 4.18591 2.94421 5.1766 3.63704 6.12187 4.31207 5.17658 3.63706 4.18591zM3.96111 5.19339 3.64893 5.61718 3.333 5.16811 3.64809 4.70305 3.96111 5.19339zM5.13706 4.18591 4.44421 5.1766 5.13704 6.12187 5.81207 5.17658 5.13706 4.18591zM5.46111 5.19339 5.14893 5.61718 4.833 5.16811 5.14809 4.70305 5.46111 5.19339zM2.94421 2.23612 4.39684.0568848 5.81207 2.23605 4.3968 4.31542 2.94421 2.23612zM4.39149 3.42541 5.20566 2.2292 4.39145.975484 3.55579 2.22914 4.39149 3.42541zM4.5 2.06457H4.25V2.5807H4.5V2.06457z" clip-rule="evenodd"/><path fill="#B20000" d="M1.65615 12.4062L0.0369873 9.68711L0.462947 9.41683L1.63673 11.388L3.06895 8.75598L4.53676 11.3942L5.57384 9.67291L5.99843 9.94549L4.51967 12.3999L3.07377 9.80101L1.65615 12.4062Z"/><path fill="#B20000" fill-rule="evenodd" d="M.75.516113H1.01882V1.03224H.75V.516113zM3 0H3.26882V.516129H3V0zM5.25.516113H5.51882V1.03224H5.25V.516113zM.75 3.61292H1V4.12904H.75V3.61292zM3 3.61292H3.25V4.12904H3V3.61292zM5.5 3.61292H5.25V4.12904H5.5V3.61292zM.75 6.1936H1V6.70973H.75V6.1936zM3 6.1936H3.25V6.70973H3V6.1936zM5.5 6.1936H5.25V6.70973H5.5V6.1936z" clip-rule="evenodd"/><path fill="#B20000" fill-rule="evenodd" d="M2.2082 8.95476 1.544 9.92298.496338 8.03608 1.8761 5.88025 3.06266 7.75944 4.24923 5.88025 5.62899 8.03608 4.58133 9.92298 3.91713 8.95476 4.44153 7.86449 4.24923 7.4215 3.12899 9.23859V9.45376L3.06266 9.34618 2.99634 9.45376V9.23859L1.8761 7.4215 1.6838 7.86449 2.2082 8.95476zM3 10.5807H3.25V11.0968H3V10.5807zM3 13.1613H3.25V13.6775H3V13.1613zM3 11.3549H2.75V11.871H3V12.1291H2.75V12.6452H3V12.3871H3.25V12.6452H3.5V12.1291H3.25V11.871H3.5V11.3549H3.25V11.871H3V11.3549zM2.25 11.871H2.5V12.3871H2.25V11.871zM4 11.871H3.75V12.3871H4V11.871zM.5 11.871H.75V12.3871H.5V11.871zM5.75 11.871H5.5V12.3871H5.75V11.871zM.444214 21.7639 1.89684 23.9431 3.31207 21.7639 1.8968 19.6846.444214 21.7639zM1.89149 20.5746 2.70566 21.7708 1.89145 23.0245 1.05579 21.7709 1.89149 20.5746zM2 21.9354H1.75V21.4193H2V21.9354zM1.13706 19.8141.444214 18.8234 1.13704 17.8781 1.81207 18.8234 1.13706 19.8141zM1.46111 18.8066 1.14893 18.3828.832999 18.8319 1.14809 19.2969 1.46111 18.8066zM2.63706 19.8141 1.94421 18.8234 2.63704 17.8781 3.31207 18.8234 2.63706 19.8141zM2.96111 18.8066 2.64893 18.3828 2.333 18.8319 2.64809 19.2969 2.96111 18.8066z" clip-rule="evenodd"/><path fill="#B20000" fill-rule="evenodd" d="M3.63706 19.8141 2.94421 18.8234 3.63704 17.8781 4.31207 18.8234 3.63706 19.8141zM3.96111 18.8066 3.64893 18.3828 3.333 18.8319 3.64809 19.2969 3.96111 18.8066zM5.13706 19.8141 4.44421 18.8234 5.13704 17.8781 5.81207 18.8234 5.13706 19.8141zM5.46111 18.8066 5.14893 18.3828 4.833 18.8319 5.14809 19.2969 5.46111 18.8066zM2.94421 21.7639 4.39684 23.9431 5.81207 21.7639 4.3968 19.6846 2.94421 21.7639zM4.39149 20.5746 5.20566 21.7708 4.39145 23.0245 3.55579 21.7709 4.39149 20.5746zM4.5 21.9354H4.25V21.4193H4.5V21.9354z" clip-rule="evenodd"/><path fill="#B20000" d="M1.65615 11.5938L0.0369873 14.3129L0.462947 14.5832L1.63673 12.612L3.06895 15.244L4.53676 12.6058L5.57384 14.3271L5.99843 14.0545L4.51967 11.6001L3.07377 14.199L1.65615 11.5938Z"/><path fill="#B20000" fill-rule="evenodd" d="M.75 23.4839H1.01882V22.9678H.75V23.4839zM3 24H3.26882V23.4839H3V24zM5.25 23.4839H5.51882V22.9678H5.25V23.4839zM.75 20.3871H1V19.871H.75V20.3871zM3 20.3871H3.25V19.871H3V20.3871zM5.5 20.3871H5.25V19.871H5.5V20.3871zM.75 17.8064H1V17.2903H.75V17.8064zM3 17.8064H3.25V17.2903H3V17.8064zM5.5 17.8064H5.25V17.2903H5.5V17.8064z" clip-rule="evenodd"/><path fill="#B20000" fill-rule="evenodd" d="M2.2082 15.1928L1.544 14.2246L0.496338 16.1115L1.8761 18.2673L3.06266 16.3881L4.24923 18.2673L5.62899 16.1115L4.58133 14.2246L3.91713 15.1928L4.44153 16.2831L4.24923 16.7261L3.12899 14.909V14.6938L3.06266 14.8014L2.99634 14.6938V14.909L1.8761 16.7261L1.6838 16.2831L2.2082 15.1928Z" clip-rule="evenodd"/></g></svg>

<svg xmlns="http://www.w3.org/2000/svg" fill="none" viewBox="0 0 32 24"><mask id="BLR_svg__a" width="32" height="24" x="0" y="0" maskUnits="userSpaceOnUse"><path fill="#fff" d="M0 0h32v24H0z"/></mask><g mask="url(#BLR_svg__a)"><path fill="#73BE4A" fill-rule="evenodd" d="M0 0h32v24H0V0z" clip-rule="evenodd"/><path fill="#AF0100" fill-rule="evenodd" d="M0 0v16h32V0H0z" clip-rule="evenodd"/><path fill="#F7FCFF" d="M0 0h6v24H0z"/><path fill="#B20000" fill-rule="evenodd" d="M.444 2.236L1.897.056l1.415 2.18-1.415 2.08-1.453-2.08zm1.447 1.19l.815-1.197L1.89.975 1.056 2.23l.835 1.196zM2 2.064h-.25v.516H2v-.516zm-.863 2.122l-.693.99.693.946.675-.945-.675-.991zm.324 1.007l-.312.424-.316-.449.315-.465.313.49zm1.176-1.007l-.693.99.693.946.675-.945-.675-.991zm.324 1.007l-.312.424-.316-.449.315-.465.313.49z" clip-rule="evenodd"/><path fill="#B20000" fill-rule="evenodd" d="M3.637 4.186l-.693.99.693.946.675-.945-.675-.991zm.324 1.007l-.312.424-.316-.449.315-.465.313.49zm1.176-1.007l-.693.99.693.946.675-.945-.675-.991zm.324 1.007l-.312.424-.316-.449.315-.465.313.49zM2.944 2.236L4.397.056l1.415 2.18-1.415 2.08-1.453-2.08zm1.447 1.19l.815-1.197L4.39.975 3.556 2.23l.835 1.196zM4.5 2.064h-.25v.516h.25v-.516z" clip-rule="evenodd"/><path fill="#B20000" d="M1.656 12.406L.037 9.687l.426-.27 1.174 1.97 1.432-2.631 1.468 2.638 1.037-1.721.424.272L4.52 12.4 3.074 9.8l-1.418 2.605z"/><path fill="#B20000" fill-rule="evenodd" d="M.75.516h.269v.516H.75V.516zM3 0h.269v.516H3V0zm2.25.516h.269v.516H5.25V.516zM.75 3.613H1v.516H.75v-.516zm2.25 0h.25v.516H3v-.516zm2.5 0h-.25v.516h.25v-.516zM.75 6.194H1v.516H.75v-.516zm2.25 0h.25v.516H3v-.516zm2.5 0h-.25v.516h.25v-.516z" clip-rule="evenodd"/><path fill="#B20000" fill-rule="evenodd" d="M2.208 8.955l-.664.968L.496 8.036l1.38-2.156 1.187 1.88 1.186-1.88 1.38 2.156-1.048 1.887-.664-.968.525-1.09-.193-.444L3.13 9.24v.215l-.066-.108-.067.108V9.24L1.876 7.42l-.192.443.524 1.09zM3 10.58h.25v.517H3v-.516zm0 2.581h.25v.516H3v-.516zm0-1.806h-.25v.516H3v.258h-.25v.516H3v-.258h.25v.258h.25v-.516h-.25v-.258h.25v-.516h-.25v.516H3v-.516zm-.75.516h.25v.516h-.25v-.516zm1.75 0h-.25v.516H4v-.516zm-3.5 0h.25v.516H.5v-.516zm5.25 0H5.5v.516h.25v-.516zM.444 21.764l1.453 2.18 1.415-2.18-1.415-2.08-1.453 2.08zm1.447-1.19l.815 1.197-.815 1.254-.835-1.254.835-1.196zM2 21.936h-.25v-.516H2v.517zm-.863-2.122l-.693-.99.693-.946.675.945-.675.991zm.324-1.007l-.312-.424-.316.449.315.465.313-.49zm1.176 1.007l-.693-.99.693-.946.675.945-.675.991zm.324-1.007l-.312-.424-.316.449.315.465.313-.49z" clip-rule="evenodd"/><path fill="#B20000" fill-rule="evenodd" d="M3.637 19.814l-.693-.99.693-.946.675.945-.675.991zm.324-1.007l-.312-.424-.316.449.315.465.313-.49zm1.176 1.007l-.693-.99.693-.946.675.945-.675.991zm.324-1.007l-.312-.424-.316.449.315.465.313-.49zm-2.517 2.957l1.453 2.18 1.415-2.18-1.415-2.08-1.453 2.08zm1.447-1.19l.815 1.197-.815 1.254-.835-1.254.835-1.196zm.109 1.361h-.25v-.516h.25v.517z" clip-rule="evenodd"/><path fill="#B20000" d="M1.656 11.594L.037 14.313l.426.27 1.174-1.97 1.432 2.631 1.468-2.638 1.037 1.721.424-.272L4.52 11.6l-1.446 2.6-1.418-2.606z"/><path fill="#B20000" fill-rule="evenodd" d="M.75 23.484h.269v-.516H.75v.516zM3 24h.269v-.516H3V24zm2.25-.516h.269v-.516H5.25v.516zm-4.5-3.097H1v-.516H.75v.516zm2.25 0h.25v-.516H3v.516zm2.5 0h-.25v-.516h.25v.516zM.75 17.806H1v-.516H.75v.517zm2.25 0h.25v-.516H3v.517zm2.5 0h-.25v-.516h.25v.517z" clip-rule="evenodd"/><path fill="#B20000" fill-rule="evenodd" d="M2.208 15.193l-.664-.968L.496 16.11l1.38 2.156 1.187-1.879 1.186 1.88 1.38-2.157-1.048-1.886-.664.968.525 1.09-.193.443-1.12-1.817v-.215l-.066.107-.067-.107v.215l-1.12 1.817-.192-.443.524-1.09z" clip-rule="evenodd"/></g></svg>
